X: 40532
T: Tommy Maguire's
R: jig
M: 6/8
K: Dmajor
e|fAA g2e|fed edB|AdB AFD|EFE EFG|
ABA fed|afd edB|AdB AFE|FDD D2||
A|dcd fed|e2A A2f|ecA gfe|dAG EFG|
ABA DFA|dcd efg|afd e/f/ge|fdc d2||

